packages/astro-components-stencil/src/icons/remove-from-queue.svg

<svg xmlns="http://www.w3.org/2000/svg" viewBox="0 0 24 24"><g xmlns="http://www.w3.org/2000/svg" id="remove-from-queue" fill-rule="nonzero">
            <path d="M21 3H3c-1.1 0-2 .9-2 2v12c0 1.1.9 2 2 2h5v1c0 .55.45 1 1 1h6c.55 0 1-.45 1-1v-1h5c1.1 0 2-.9 2-2V5a2 2 0 00-2-2zm-1 14H4c-.55 0-1-.45-1-1V6c0-.55.45-1 1-1h16c.55 0 1 .45 1 1v10c0 .55-.45 1-1 1zm-4-6c0 .55-.45 1-1 1H9c-.55 0-1-.45-1-1s.45-1 1-1h6c.55 0 1 .45 1 1z"/>
        </g></svg>

<svg width="24" height="24" viewBox="0 0 24 24" fill="none" xmlns="http://www.w3.org/2000/svg">
<path fill-rule="evenodd" clip-rule="evenodd" d="M21 3H3C1.9 3 1 3.9 1 5V17C1 18.1 1.9 19 3 19H8V20C8 20.55 8.45 21 9 21H15C15.55 21 16 20.55 16 20V19H21C22.1 19 23 18.1 23 17V5C23 3.89 22.1 3 21 3ZM20 17H4C3.45 17 3 16.55 3 16V6C3 5.45 3.45 5 4 5H20C20.55 5 21 5.45 21 6V16C21 16.55 20.55 17 20 17ZM15 12C15.55 12 16 11.55 16 11C16 10.45 15.55 10 15 10H9C8.45 10 8 10.45 8 11C8 11.55 8.45 12 9 12H15Z" fill="black"/>
</svg>
